lib/svg/ellipses.svg

<svg xmlns="http://www.w3.org/2000/svg" width="12" height="16" viewBox="0 0 12 16"><path d="M11 5H1c-.55 0-1 .45-1 1v4c0 .55.45 1 1 1h10c.55 0 1-.45 1-1V6c0-.55-.45-1-1-1zM4 9H2V7h2v2zm3 0H5V7h2v2zm3 0H8V7h2v2z"/></svg>

<?xml version="1.0" encoding="UTF-8" standalone="no"?>
<svg width="12px" height="16px" viewBox="0 0 12 16" version="1.1" xmlns="http://www.w3.org/2000/svg" xmlns:xlink="http://www.w3.org/1999/xlink">
    <!-- Generator: Sketch 3.8.3 (29802) - http://www.bohemiancoding.com/sketch -->
    <title>ellipses</title>
    <desc>Created with Sketch.</desc>
    <defs></defs>
    <g id="Octicons" stroke="none" stroke-width="1" fill="none" fill-rule="evenodd">
        <g id="ellipses" fill="#000000">
            <path d="M11,5 L1,5 C0.45,5 0,5.45 0,6 L0,10 C0,10.55 0.45,11 1,11 L11,11 C11.55,11 12,10.55 12,10 L12,6 C12,5.45 11.55,5 11,5 L11,5 Z M4,9 L2,9 L2,7 L4,7 L4,9 L4,9 Z M7,9 L5,9 L5,7 L7,7 L7,9 L7,9 Z M10,9 L8,9 L8,7 L10,7 L10,9 L10,9 Z" id="Shape"></path>
        </g>
    </g>
</svg>
